symbols/web/how_to_vote/materialsymbolsoutlined/how_to_vote_wght700gradN25fill1_24px.svg

<svg xmlns="http://www.w3.org/2000/svg" height="24" width="24"><path d="M4.95 22.725q-1.275 0-2.15-.875t-.875-2.15v-4.225l3.4-3.775L7.5 13.85l-2 2.225h13.025L16.55 13.85l2.15-2.15 3.375 3.775V19.7q0 1.275-.875 2.15t-2.15.875ZM9.925 13.6l-3.1-3.125q-.9-.9-.875-2.15.025-1.25.925-2.15L11.35 1.7q.875-.875 2.125-.888 1.25-.012 2.15.888L18.7 4.825q.875.925.862 2.162-.012 1.238-.912 2.138l-4.5 4.5q-.875.875-2.112.887-1.238.013-2.113-.912Zm6.65-6.675-3.1-3.075-4.525 4.5 3.125 3.075Z"/></svg>

<svg xmlns="http://www.w3.org/2000/svg" height="24" width="24"><path d="M5.5 16.075H18.525L16.55 13.85L18.7 11.7L22.075 15.475V19.7Q22.075 20.975 21.2 21.85Q20.325 22.725 19.05 22.725H4.95Q3.675 22.725 2.8 21.85Q1.925 20.975 1.925 19.7V15.475L5.325 11.7L7.5 13.85ZM18.65 9.125 14.15 13.625Q13.275 14.5 12.038 14.512Q10.8 14.525 9.925 13.6L6.825 10.475Q5.925 9.575 5.95 8.325Q5.975 7.075 6.875 6.175L11.35 1.7Q12.225 0.825 13.475 0.812Q14.725 0.8 15.625 1.725L18.7 4.825Q19.575 5.75 19.562 6.987Q19.55 8.225 18.65 9.125ZM16.575 6.925Q16.575 6.925 16.575 6.925Q16.575 6.925 16.575 6.925L13.475 3.85Q13.475 3.85 13.475 3.85Q13.475 3.85 13.475 3.85L8.95 8.35Q8.95 8.35 8.95 8.35Q8.95 8.35 8.95 8.35L12.075 11.425Q12.075 11.425 12.075 11.425Q12.075 11.425 12.075 11.425Z"/></svg>
